icelandair.svg

<svg viewBox="0 0 8 8" version="1.1" xmlns="http://www.w3.org/2000/svg" xmlns:xlink="http://www.w3.org/1999/xlink">
    <title>Combined Shape</title>
    <g id="Page-1" stroke="none" stroke-width="1" fill="none" fill-rule="evenodd">
        <path d="M8.9,1.42108547e-14 L6.78550755,6.80995957 L0.9,6.80995957 L6.90127687,1.42108547e-14 L8.9,1.42108547e-14 Z M4.86509896,5.07512237 C4.52289849,5.09725474 4.21304533,5.15513939 4.04109385,5.26580123 C4.00363907,5.28623111 3.97639923,5.31857842 3.95937433,5.3560332 C3.94064695,5.40540541 3.99342413,5.47010002 4.05301128,5.49393488 C4.12281336,5.52117472 4.21474782,5.53990211 4.36116195,5.5416046 C4.45650138,5.54330709 4.55184082,5.53819962 4.64718025,5.52628219 C4.64718025,5.52628219 4.83445414,5.14151947 4.86509896,5.07512237 Z M6.82636731,4.02128112 C6.82636731,4.02128112 6.76507768,4.0927857 6.52672909,4.1438604 C6.43309215,4.16088529 6.33775271,4.16599276 6.24241328,4.1591828 C6.0193871,4.14726538 5.86105554,4.07405831 5.4984252,4.041711 C5.00640562,3.99914876 4.63696531,4.14045542 4.40712918,4.29197702 C4.35094701,4.33283677 4.31689721,4.33794424 4.25560758,4.4639285 C4.14664822,4.70568206 4.0496063,4.90827836 3.96958927,5.09044478 C3.95426687,5.1193871 3.94405193,5.15173441 3.93553948,5.18408172 C3.97639923,5.13981698 4.22155778,4.78910406 5.49161524,4.9014684 C5.97512237,4.94573313 6.22028091,4.92530326 6.46884443,4.63247499 C6.65611832,4.39242392 6.82636731,4.02128112 6.82636731,4.02128112 Z M7.33711428,2.9810598 C7.33711428,2.9810598 7.16346031,3.15641626 6.63739093,3.15811875 C6.28497553,3.15301128 6.09259417,3.04234944 5.66356672,3.03724197 C5.18686955,3.0321345 4.8242392,3.19216855 4.71527985,3.41519472 C4.64888274,3.56160885 4.39521175,4.13194297 4.39521175,4.13194297 C4.51608853,4.03660353 4.65399021,3.96339647 4.80040434,3.91742924 C5.1443073,3.80846989 5.46267291,3.82889977 5.79125346,3.88167695 C6.03130453,3.92083422 6.16409874,3.96850394 6.38201745,3.96169398 C6.57950628,3.95488402 6.68165567,3.91061928 6.75997021,3.86465205 C6.85871462,3.8067674 6.94724409,3.71823792 7.07152586,3.52415408 C7.14643541,3.38114492 7.30646946,3.04575442 7.33711428,2.9810598 Z" id="Combined-Shape" fill="#001B71" fill-rule="nonzero"></path>
    </g>
</svg>

<svg viewBox="0 0 8 8" xmlns="http://www.w3.org/2000/svg"><path d="M8.9 0 6.786 6.81H.9L6.901 0H8.9ZM4.865 5.075c-.342.022-.652.08-.824.19a.19.19 0 0 0-.082.091c-.018.05.034.114.094.138.07.027.162.046.308.048.096.001.19-.004.286-.016l.218-.45Zm1.961-1.054s-.06.072-.3.123a1.136 1.136 0 0 1-.284.015c-.223-.012-.38-.085-.744-.117-.492-.043-.861.098-1.09.25-.057.04-.091.046-.152.172-.11.242-.206.444-.286.626a.439.439 0 0 0-.034.094c.04-.044.286-.395 1.556-.283.483.045.728.024.977-.269a3.72 3.72 0 0 0 .357-.61Zm.511-1.04s-.174.175-.7.177c-.352-.005-.544-.116-.973-.12-.477-.006-.84.154-.949.377l-.32.717c.121-.095.259-.169.405-.215.344-.109.663-.088.991-.035.24.039.373.087.591.08a.734.734 0 0 0 .378-.097c.099-.058.187-.147.312-.34.074-.144.234-.48.265-.544Z" fill="#001B71" fill-rule="nonzero"/></svg>
